src/assets/images/brands/southpark.svg

<svg height="63" viewBox="0 0 128 63" width="128" xmlns="http://www.w3.org/2000/svg"><path d="m7.093199 1.031067c-4.116205.870525-7.093199 4.363392-7.093199 8.329132 0 3.224182 1.192947 5.631573 3.460621 7.007221.978002.601849 2.181696.978005 4.352645 1.386399 2.332158.429889 3.170445.687824 3.707809 1.128463.773804.634091.816792 1.7733.107472 2.48262-1.246682 1.235936-3.138203 0-3.320906-2.170948l-.064484-.741561h-4.116205-4.126952v5.373634 5.373634h2.83728 2.826532l.075231-.440635c.07523-.483628.644836-1.171452.967254-1.171452.311671 0 .849034.279427 1.891519.988747 1.450882.978 2.794291 1.375652 4.685812 1.375652 4.277413 0 7.952981-2.794292 9.09219-6.931992.333166-1.225189.333166-3.901256 0-5.158691-.655582-2.418133-2.063476-4.169941-4.159193-5.169434-1.257431-.601848-2.848027-.892025-4.857767-.902771-1.472377 0-2.579345-.386901-2.891016-.98875-.548111-1.053234.171956-2.117214 1.332662-1.988247.881276.096725 1.321914.63409 1.397145 1.708817l.042989.623344h4.234425 4.234425v-4.782536-4.782539h-3.062973-3.052225l-.07523.558857c-.053737.36541-.161209.644836-.322418.806046-.386902.386905-.354661.408397-1.880774-.763054-.376153-.290177-.935011-.634087-1.235935-.773804-1.311167-.580353-3.299413-.730816-4.986734-.376152zm26.81444-.096726c-6.050711.945759-9.95197 5.878754-10.596806 13.434086-.558861 6.555836 1.902264 12.004704 6.469856 14.304619 3.073719 1.547608 7.179177 1.698071 10.403359.376156 3.525104-1.429386 6.17968-4.954495 7.103946-9.436104.935013-4.556843.300927-9.597313-1.633583-13.036442-1.601349-2.826534-3.879768-4.621326-6.846016-5.39513-.816791-.204197-1.364902-.26868-2.643829-.300922-.881275-.021496-1.902264 0-2.256927.053737zm2.278423 8.167927c.720066.440636 1.149959 1.870022 1.332661 4.427872.19345 2.869522-.118218 6.147442-.698575 7.25441-.085975.161209-.300918.440639-.494373.62334-.290172.279431-.41914.322419-.913517.322419-.462131 0-.634086-.053734-.859783-.268681-.870525-.806046-1.074726-1.977497-1.074726-6.072208 0-3.449875.107471-4.427876.612594-5.491856.451386-.956505 1.300423-1.278923 2.095719-.795296zm11.961712-3.869018v3.654068h.483627c.623341 0 1.139214.21495 1.429386.591102.236443.300923.236443.311672.236443 6.061463 0 3.170444.053737 6.222667.107471 6.792274.193451 2.052727.978005 3.686314 2.375145 4.986733 1.741062 1.612091 4.191437 2.471874 7.404873 2.600841 6.039967.247185 10.220654-2.21394 11.123425-6.54509.128967-.601844.161209-1.956001.171959-6.996471 0-4.556847.032241-6.351639.128967-6.620323.171951-.49437.591095-.78455 1.246681-.849034l.548111-.053733v-3.632576-3.64333h-5.319901-5.319896v3.64333 3.632576l.333164.075229c.472881.08598.935013.623341 1.010239 1.171452.032249.247188.053741 2.600841.032249 5.233921l-.032249 4.782535-.268677.526619c-.343914.698571-.70932.945759-1.429386 1.010243-.773804.064484-1.375653-.236439-1.708817-.870529l-.247188-.451386v-5.352142-5.362888l.397651-.365406c.236435-.214947.515866-.36541.677075-.36541h.268684v-3.654068-3.654076h-6.824516-6.82452zm26.406051-3.578842c-.042991.032241-.075233 2.891014-.075233 6.340888v6.26566h2.901764 2.901756v-1.913014c0-1.042484.053742-2.084972.118225-2.310665.161209-.580353.601845-1.031738 1.096222-1.117714l.408394-.064483-.032242 5.868007c-.032242 5.728298-.032242 5.868012-.257934 6.168934-.279427.386902-.849038.666332-1.536858.752312l-.548111.06448v3.740051 3.750797h7.361877 7.361886v-3.750797-3.740051l-.548111-.06448c-.687828-.08598-1.257431-.36541-1.536858-.752312-.2257-.300922-.2257-.440636-.257935-6.158184l-.021499-5.846519h.311676c.47287 0 1.03173.526619 1.182197 1.117717.064484.268685.118218 1.332665.118218 2.364403v1.891518h2.901764 2.901764v-6.340889-6.340893h-12.337868c-6.792275 0-12.380859.032242-12.413094.075234zm25.825692 3.578842v3.654068h.386894c.526619 0 1.096222.29018 1.27893.655586.236443.451385.236443 10.811756 0 11.273888-.2257.440639-.644836.730812-1.192955.816791l-.472869.064484v3.750797 3.750797h6.663307 6.663299v-3.740047-3.729305l-.505111-.16121c-.795304-.257934-.892022-.537361-.892022-2.654575v-1.751804h1.880761 1.880775v1.590595c0 .870529-.042984 1.741058-.107475 1.945255-.13971.494377-.49437.849034-.935005.935013l-.354668.064484v3.750797 3.750797h6.663315 6.663307v-3.761543-3.761543h-.290176c-.171952 0-.505127-.096726-.763054-.214947-.35466-.161209-.505127-.311672-.666336-.666332-.193444-.440636-.214943-.741562-.214943-5.599327 0-5.55634.010742-5.674561.580353-6.039967.139717-.096725.494377-.214943.784553-.247189l.515869-.075229v-3.600334-3.600338l-6.631073-.032242-6.641815-.021496v3.654076c0 3.224182.0215 3.654068.161209 3.654068.37616 0 .827545.354664 1.031746.784553.161209.365406.204193.70932.204193 1.708817v1.268177h-1.891518-1.891517l.042984-1.515366.032242-1.515365.397651-.365406c.236443-.214947.515877-.36541.677086-.36541h.268669v-3.654068-3.654076h-6.663299-6.663307zm-38.206559 32.757679v3.589592l.634091.128967c.763065.150459 1.13921.515869 1.246692 1.225189.032235.247185.053727 2.686813.032235 5.416622-.032235 4.814778-.042977 4.965241-.257931 5.255417-.333161.462132-.720066.698574-1.203693.763058l-.451394.064484v3.740047 3.750797h6.878266 6.87825v-3.761543-3.761543h-.397652c-.515861 0-1.042488-.322419-1.289673-.773804-.150467-.290176-.182701-.63409-.193443-1.85928v-1.504619h.870514c.988762.01075 1.321922.150463 1.622856.730816.161209.290176.193443.795299.257927 3.299411.075234 3.331654.204186 4.191437.795303 5.438118.849022 1.78405 2.504113 2.622338 5.126435 2.622338 3.858276-.01075 5.986244-2.117214 6.53434-6.480606.053741-.483628.107483-2.095719.107483-3.589589v-2.719059h-1.020997-1.020996v2.246178c0 1.235939-.032234 2.396645-.064468 2.590096-.085999.408394-.311676.526615-.558861.279426-.150459-.139713-.193458-.462131-.236442-1.547607-.053742-1.21444-.096741-1.440132-.354668-1.977497-.322418-.655583-.945747-1.289673-1.698067-1.730313-.558861-.333164-1.90226-.720066-2.514862-.730812-.859787-.010749-.892021-.171959-.053741-.247188 2.82653-.268681 4.578346-1.547608 5.341408-3.912007.376144-1.128463.46212-3.26717.204193-4.470863-.601845-2.686821-2.751305-4.642822-5.975487-5.395134-.730812-.171951-1.676575-.193451-10.016449-.225689l-9.221169-.042988zm13.810257 3.740051c.225678.064484.569603.268684.763047.462135.859787.85978.666328 3.159699-.311676 3.869019-.247185.182701-.505112.236439-1.375649.257934l-1.063972.042988v-2.299915c0-1.268181.032234-2.342907.075233-2.375149.10746-.118221 1.440132-.085979 1.913017.042988zm14.562538-3.729302v3.578843l.623345.128967c.709328.139713 1.042488.408394 1.203697.988747.150467.515869.139717 9.919731-.010742 10.467842-.193466.70932-.849045 1.235939-1.547608 1.235939h-.268692v3.761543 3.761543h6.609574 6.609573v-3.750797-3.750797l-.354652-.064484c-.72007-.139713-1.031746-.816791-1.042488-2.267673v-.752308l.784553-.612595.773796-.612595.902787 1.794793c.838279 1.687324.892021 1.805542.752296 2.063476-.085976.150463-.311668.311672-.505112.376156l-.343925.096726v3.740051 3.740047h6.663315 6.663314v-3.750797-3.740047l-.419166-.075234c-.23642-.032242-.548088-.171955-.687813-.311668-.257927-.236443-5.051224-9.919731-4.997482-10.080941.021492-.053737.322418-.333168.666328-.623344 1.020996-.859779 2.364411-1.483124 3.643318-1.676575l.397652-.064483v-3.589589-3.600334h-5.964737-5.964729v3.600334 3.600338l.268692.107472c.311676.118221.354652.472881.096718.838287-.15046.225693-2.213944 1.676575-2.568596 1.816288-.128975.042992-.161209-.064483-.161209-.569603.010742-1.246685.386902-1.988247 1.085464-2.12796l.311676-.064484v-3.600338-3.600334h-6.609573-6.609574zm-78.132655 3.589589v-7.179177h8.683791c8.855753 0 9.833752.042988 11.359868.42989 2.837284.730816 4.718052 2.740555 5.276908 5.674561.204197 1.074726.204197 3.492858-.010742 4.481613-.72007 3.406883-3.052231 5.298401-7.0932 5.749786-.526616.053738-2.192439.107475-3.68631.107475h-2.729809l.042988 1.203694c.032244 1.375652.161209 1.719562.72007 2.095718.311662.204197.505115.247189 1.257427.247189h.902767v7.523086h-14.723758v-7.523086h.257931c.763057 0 1.407893-.548111 1.569102-1.343411.075232-.376156.107476-2.246181.085977-5.502605-.032234-4.492356-.053733-4.954491-.225687-5.223171-.225697-.343915-.623346-.558857-1.225195-.666333zm29.071376-5.889504c.161209-.612594.311672-1.160709.333161-1.203693.032234-.042992 2.7513-.08598 6.03997-.08598h5.986225l.902767 3.363896c2.461132 9.145927 4.202179 15.465324 4.352642 15.744751.236443.451385.666329.763057 1.160717.838287l.408398.075234v7.490844h-14.401352v-7.523086h.354653c.870533 0 1.579856-.462136 1.579856-1.020993 0-.128967-.075233-.591098-.171955-1.010242l-.171951-.763058-1.891533.021496-1.902252.032242-.139721.773804c-.257931 1.321914-.021488 1.805542.945766 1.934509l.429882.064484v7.490844h-10.747272v-7.523086h.247185c.763057 0 1.547611-.483628 1.891521-1.171456.247196-.483627 3.417645-12.058433 4.793293-17.528797zm5.642315 12.649536c0-.064483-.225696-1.472377-.505134-3.116707-.268677-1.633586-.526608-2.976993-.569603-2.976993-.042981 0-1.020977 4.234421-1.375653 5.986229-.042976.247185-.03223.247185 1.203697.247185.924275 0 1.246693-.032238 1.246693-.139714zm-19.678259-5.094204c-.096721-.677078-.333162-1.06398-.838289-1.364906-.365406-.214943-2.138706-.386902-2.289171-.214943-.053732.042988-.085976 1.117714-.085976 2.385895v2.299915l1.05323-.042988c.870533-.021495 1.09623-.075233 1.37566-.268684.623337-.451386.945755-1.590595.784546-2.794289z"/></svg>

<?xml version="1.0" encoding="UTF-8"?>
<!-- Generated by Pixelmator Pro 3.6.14 -->
<svg width="128" height="63" viewBox="0 0 128 63" xmlns="http://www.w3.org/2000/svg">
    <path id="southpark" fill="#000000" stroke="none" d="M 7.093199 1.031067 C 2.976994 1.901592 0 5.394459 0 9.360199 C 0 12.584381 1.192947 14.991772 3.460621 16.36742 C 4.438623 16.969269 5.642317 17.345425 7.813266 17.753819 C 10.145424 18.183708 10.983711 18.441643 11.521075 18.882282 C 12.294879 19.516373 12.337867 20.655582 11.628547 21.364902 C 10.381865 22.600838 8.490344 21.364902 8.307641 19.193954 L 8.243157 18.452393 L 4.126952 18.452393 L 0 18.452393 L 0 23.826027 L 0 29.199661 L 2.83728 29.199661 L 5.663812 29.199661 L 5.739043 28.759026 C 5.814273 28.275398 6.383879 27.587574 6.706297 27.587574 C 7.017968 27.587574 7.555331 27.867001 8.597816 28.576321 C 10.048698 29.554321 11.392107 29.951973 13.283628 29.951973 C 17.561041 29.951973 21.236609 27.157681 22.375818 23.019981 C 22.708984 21.794792 22.708984 19.118725 22.375818 17.86129 C 21.720236 15.443157 20.312342 13.691349 18.216625 12.691856 C 16.959194 12.090008 15.368598 11.799831 13.358858 11.789085 C 11.886481 11.789085 10.779513 11.402184 10.467842 10.800335 C 9.919731 9.747101 10.639798 8.683121 11.800504 8.812088 C 12.68178 8.908813 13.122418 9.446178 13.197649 10.520905 L 13.240638 11.144249 L 17.475063 11.144249 L 21.709488 11.144249 L 21.709488 6.361713 L 21.709488 1.579174 L 18.646515 1.579174 L 15.59429 1.579174 L 15.51906 2.138031 C 15.465323 2.503441 15.357851 2.782867 15.196642 2.944077 C 14.80974 3.330982 14.841981 3.352474 13.315868 2.181023 C 12.939715 1.890846 12.380857 1.546936 12.079933 1.407219 C 10.768766 0.826866 8.78052 0.676403 7.093199 1.031067 Z M 33.907639 0.934341 C 27.856928 1.8801 23.955669 6.813095 23.310833 14.368427 C 22.751972 20.924263 25.213097 26.373131 29.780689 28.673046 C 32.854408 30.220654 36.959866 30.371117 40.184048 29.049202 C 43.709152 27.619816 46.363728 24.094707 47.287994 19.613098 C 48.223007 15.056255 47.588921 10.015785 45.654411 6.576656 C 44.053062 3.750122 41.774643 1.95533 38.808395 1.181526 C 37.991604 0.977329 37.443493 0.912846 36.164566 0.880604 C 35.283291 0.859108 34.262302 0.880604 33.907639 0.934341 Z M 36.186062 9.102268 C 36.906128 9.542904 37.336021 10.97229 37.518723 13.53014 C 37.712173 16.399662 37.400505 19.677582 36.820148 20.78455 C 36.734173 20.945759 36.51923 21.225189 36.325775 21.40789 C 36.035603 21.687321 35.906635 21.730309 35.412258 21.730309 C 34.950127 21.730309 34.778172 21.676575 34.552475 21.461628 C 33.68195 20.655582 33.477749 19.484131 33.477749 15.38942 C 33.477749 11.939545 33.58522 10.961544 34.090343 9.897564 C 34.541729 8.941059 35.390766 8.618641 36.186062 9.102268 Z M 48.147774 5.23325 L 48.147774 8.887318 L 48.631401 8.887318 C 49.254742 8.887318 49.770615 9.102268 50.060787 9.47842 C 50.29723 9.779343 50.29723 9.790092 50.29723 15.539883 C 50.29723 18.710327 50.350967 21.76255 50.404701 22.332157 C 50.598152 24.384884 51.382706 26.018471 52.779846 27.31889 C 54.520908 28.930981 56.971283 29.790764 60.184719 29.919731 C 66.224686 30.166916 70.405373 27.705791 71.308144 23.374641 C 71.437111 22.772797 71.469353 21.41864 71.480103 16.37817 C 71.480103 11.821323 71.512344 10.026531 71.60907 9.757847 C 71.781021 9.263477 72.200165 8.973297 72.855751 8.908813 L 73.403862 8.85508 L 73.403862 5.222504 L 73.403862 1.579174 L 68.083961 1.579174 L 62.764065 1.579174 L 62.764065 5.222504 L 62.764065 8.85508 L 63.097229 8.930309 C 63.57011 9.016289 64.032242 9.55365 64.107468 10.101761 C 64.139717 10.348949 64.161209 12.702602 64.139717 15.335682 L 64.107468 20.118217 L 63.838791 20.644836 C 63.494877 21.343407 63.129471 21.590595 62.409405 21.655079 C 61.635601 21.719563 61.033752 21.41864 60.700588 20.78455 L 60.4534 20.333164 L 60.4534 14.981022 L 60.4534 9.618134 L 60.851051 9.252728 C 61.087486 9.037781 61.366917 8.887318 61.528126 8.887318 L 61.79681 8.887318 L 61.79681 5.23325 L 61.79681 1.579174 L 54.972294 1.579174 L 48.147774 1.579174 L 48.147774 5.23325 Z M 74.553825 1.654408 C 74.510834 1.686649 74.478592 4.545422 74.478592 7.995296 L 74.478592 14.260956 L 77.380356 14.260956 L 80.282112 14.260956 L 80.282112 12.347942 C 80.282112 11.305458 80.335854 10.26297 80.400337 10.037277 C 80.561546 9.456924 81.002182 9.005539 81.496559 8.919563 L 81.904953 8.85508 L 81.872711 14.723087 C 81.840469 20.451385 81.840469 20.591099 81.614777 20.892021 C 81.33535 21.278923 80.765739 21.558353 80.077919 21.644333 L 79.529808 21.708813 L 79.529808 25.448864 L 79.529808 29.199661 L 86.891685 29.199661 L 94.253571 29.199661 L 94.253571 25.448864 L 94.253571 21.708813 L 93.70546 21.644333 C 93.017632 21.558353 92.448029 21.278923 92.168602 20.892021 C 91.942902 20.591099 91.942902 20.451385 91.910667 14.733837 L 91.889168 8.887318 L 92.200844 8.887318 C 92.673714 8.887318 93.232574 9.413937 93.383041 10.005035 C 93.447525 10.27372 93.501259 11.3377 93.501259 12.369438 L 93.501259 14.260956 L 96.403023 14.260956 L 99.304787 14.260956 L 99.304787 7.920067 L 99.304787 1.579174 L 86.966919 1.579174 C 80.174644 1.579174 74.58606 1.611416 74.553825 1.654408 Z M 100.379517 5.23325 L 100.379517 8.887318 L 100.766411 8.887318 C 101.29303 8.887318 101.862633 9.177498 102.045341 9.542904 C 102.281784 9.994289 102.281784 20.35466 102.045341 20.816792 C 101.819641 21.257431 101.400505 21.547604 100.852386 21.633583 L 100.379517 21.698067 L 100.379517 25.448864 L 100.379517 29.199661 L 107.042824 29.199661 L 113.706123 29.199661 L 113.706123 25.459614 L 113.706123 21.730309 L 113.201012 21.569099 C 112.405708 21.311165 112.30899 21.031738 112.30899 18.914524 L 112.30899 17.16272 L 114.189751 17.16272 L 116.070526 17.16272 L 116.070526 18.753315 C 116.070526 19.623844 116.027542 20.494373 115.963051 20.69857 C 115.823341 21.192947 115.468681 21.547604 115.028046 21.633583 L 114.673378 21.698067 L 114.673378 25.448864 L 114.673378 29.199661 L 121.336693 29.199661 L 128 29.199661 L 128 25.438118 L 128 21.676575 L 127.709824 21.676575 C 127.537872 21.676575 127.204697 21.579849 126.94677 21.461628 C 126.59211 21.300419 126.441643 21.149956 126.280434 20.795296 C 126.08699 20.35466 126.065491 20.053734 126.065491 15.195969 C 126.065491 9.639629 126.076233 9.521408 126.645844 9.156002 C 126.785561 9.059277 127.140221 8.941059 127.430397 8.908813 L 127.946266 8.833584 L 127.946266 5.23325 L 127.946266 1.632912 L 121.315193 1.60067 L 114.673378 1.579174 L 114.673378 5.23325 C 114.673378 8.457432 114.694878 8.887318 114.834587 8.887318 C 115.210747 8.887318 115.662132 9.241982 115.866333 9.671871 C 116.027542 10.037277 116.070526 10.381191 116.070526 11.380688 L 116.070526 12.648865 L 114.179008 12.648865 L 112.287491 12.648865 L 112.330475 11.133499 L 112.362717 9.618134 L 112.760368 9.252728 C 112.996811 9.037781 113.276245 8.887318 113.437454 8.887318 L 113.706123 8.887318 L 113.706123 5.23325 L 113.706123 1.579174 L 107.042824 1.579174 L 100.379517 1.579174 L 100.379517 5.23325 Z M 62.172958 37.990929 L 62.172958 41.580521 L 62.807049 41.709488 C 63.570114 41.859947 63.946259 42.225357 64.053741 42.934677 C 64.085976 43.181862 64.107468 45.62149 64.085976 48.351299 C 64.053741 53.166077 64.042999 53.31654 63.828045 53.606716 C 63.494884 54.068848 63.107979 54.30529 62.624352 54.369774 L 62.172958 54.434258 L 62.172958 58.174305 L 62.172958 61.925102 L 69.051224 61.925102 L 75.929474 61.925102 L 75.929474 58.163559 L 75.929474 54.402016 L 75.531822 54.402016 C 75.015961 54.402016 74.489334 54.079597 74.242149 53.628212 C 74.091682 53.338036 74.059448 52.994122 74.048706 51.768932 L 74.048706 50.264313 L 74.91922 50.264313 C 75.907982 50.275063 76.241142 50.414776 76.542076 50.995129 C 76.703285 51.285305 76.735519 51.790428 76.800003 54.29454 C 76.875237 57.626194 77.004189 58.485977 77.595306 59.732658 C 78.444328 61.516708 80.099419 62.354996 82.721741 62.354996 C 86.580017 62.344246 88.707985 60.237782 89.256081 55.87439 C 89.309822 55.390762 89.363564 53.778671 89.363564 52.284801 L 89.363564 49.565742 L 88.342567 49.565742 L 87.321571 49.565742 L 87.321571 51.81192 C 87.321571 53.047859 87.289337 54.208565 87.257103 54.402016 C 87.171104 54.81041 86.945427 54.928631 86.698242 54.681442 C 86.547783 54.541729 86.504784 54.219311 86.4618 53.133835 C 86.408058 51.919395 86.365059 51.693703 86.107132 51.156338 C 85.784714 50.500755 85.161385 49.866665 84.409065 49.426025 C 83.850204 49.092861 82.506805 48.705959 81.894203 48.695213 C 81.034416 48.684464 81.002182 48.523254 81.840462 48.448025 C 84.666992 48.179344 86.418808 46.900417 87.18187 44.536018 C 87.558014 43.407555 87.64399 41.268848 87.386063 40.065155 C 86.784218 37.378334 84.634758 35.422333 81.410576 34.670021 C 80.679764 34.49807 79.734001 34.47657 71.394127 34.444332 L 62.172958 34.401344 L 62.172958 37.990929 Z M 75.983215 41.73098 C 76.208893 41.795464 76.552818 41.999664 76.746262 42.193115 C 77.606049 43.052895 77.41259 45.352814 76.434586 46.062134 C 76.187401 46.244835 75.929474 46.298573 75.058937 46.320068 L 73.994965 46.363056 L 73.994965 44.063141 C 73.994965 42.79496 74.027199 41.720234 74.070198 41.687992 C 74.177658 41.569771 75.51033 41.602013 75.983215 41.73098 Z M 90.545753 38.001678 L 90.545753 41.580521 L 91.169098 41.709488 C 91.878426 41.849201 92.211586 42.117882 92.372795 42.698235 C 92.523262 43.214104 92.512512 52.617966 92.362053 53.166077 C 92.168587 53.875397 91.513008 54.402016 90.814445 54.402016 L 90.545753 54.402016 L 90.545753 58.163559 L 90.545753 61.925102 L 97.155327 61.925102 L 103.7649 61.925102 L 103.7649 58.174305 L 103.7649 54.423508 L 103.410248 54.359024 C 102.690178 54.219311 102.378502 53.542233 102.36776 52.091351 L 102.36776 51.339043 L 103.152313 50.726448 L 103.926109 50.113853 L 104.828896 51.908646 C 105.667175 53.59597 105.720917 53.714188 105.581192 53.972122 C 105.495216 54.122585 105.269524 54.283794 105.07608 54.348278 L 104.732155 54.445004 L 104.732155 58.185055 L 104.732155 61.925102 L 111.39547 61.925102 L 118.058784 61.925102 L 118.058784 58.174305 L 118.058784 54.434258 L 117.639618 54.359024 C 117.403198 54.326782 117.09153 54.187069 116.951805 54.047356 C 116.693878 53.810913 111.900581 44.127625 111.954323 43.966415 C 111.975815 43.912678 112.276741 43.633247 112.620651 43.343071 C 113.641647 42.483292 114.985062 41.859947 116.263969 41.666496 L 116.661621 41.602013 L 116.661621 38.012424 L 116.661621 34.41209 L 110.696884 34.41209 L 104.732155 34.41209 L 104.732155 38.012424 L 104.732155 41.612762 L 105.000847 41.720234 C 105.312523 41.838455 105.355499 42.193115 105.097565 42.558521 C 104.947105 42.784214 102.883621 44.235096 102.528969 44.374809 C 102.399994 44.417801 102.36776 44.310326 102.36776 43.805206 C 102.378502 42.558521 102.754662 41.816959 103.453224 41.677246 L 103.7649 41.612762 L 103.7649 38.012424 L 103.7649 34.41209 L 97.155327 34.41209 L 90.545753 34.41209 L 90.545753 38.001678 Z M 12.413098 41.591267 L 12.413098 34.41209 L 21.096889 34.41209 C 29.952642 34.41209 30.930641 34.455078 32.456757 34.84198 C 35.294041 35.572796 37.174809 37.582535 37.733665 40.516541 C 37.937862 41.591267 37.937862 44.009399 37.722923 44.998154 C 37.002853 48.405037 34.670692 50.296555 30.629723 50.74794 C 30.103107 50.801678 28.437284 50.855415 26.943413 50.855415 L 24.213604 50.855415 L 24.256592 52.059109 C 24.288836 53.434761 24.417801 53.778671 24.976662 54.154827 C 25.288324 54.359024 25.481777 54.402016 26.234089 54.402016 L 27.136856 54.402016 L 27.136856 61.925102 L 12.413098 61.925102 L 12.413098 54.402016 L 12.671029 54.402016 C 13.434086 54.402016 14.078922 53.853905 14.240131 53.058605 C 14.315363 52.682449 14.347607 50.812424 14.326108 47.556 C 14.293874 43.063644 14.272375 42.601509 14.100421 42.332829 C 13.874724 41.988914 13.477075 41.773972 12.875226 41.666496 L 12.413098 41.591267 Z M 41.484474 35.701763 C 41.645683 35.089169 41.796146 34.541054 41.817635 34.49807 C 41.849869 34.455078 44.568935 34.41209 47.857605 34.41209 L 53.84383 34.41209 L 54.746597 37.775986 C 57.207729 46.921913 58.948776 53.24131 59.099239 53.520737 C 59.335682 53.972122 59.765568 54.283794 60.259956 54.359024 L 60.668354 54.434258 L 60.668354 61.925102 L 46.267002 61.925102 L 46.267002 54.402016 L 46.621655 54.402016 C 47.492188 54.402016 48.201511 53.93988 48.201511 53.381023 C 48.201511 53.252056 48.126278 52.789925 48.029556 52.370781 L 47.857605 51.607723 L 45.966072 51.629219 L 44.06382 51.661461 L 43.924099 52.435265 C 43.666168 53.757179 43.902611 54.240807 44.869865 54.369774 L 45.299747 54.434258 L 45.299747 61.925102 L 34.552475 61.925102 L 34.552475 54.402016 L 34.79966 54.402016 C 35.562717 54.402016 36.347271 53.918388 36.691181 53.23056 C 36.938377 52.746933 40.108826 41.172127 41.484474 35.701763 Z M 47.126789 48.351299 C 47.126789 48.286816 46.901093 46.878922 46.621655 45.234592 C 46.352978 43.601006 46.095047 42.257599 46.052052 42.257599 C 46.009071 42.257599 45.031075 46.49202 44.676399 48.243828 C 44.633423 48.491013 44.644169 48.491013 45.880096 48.491013 C 46.804371 48.491013 47.126789 48.458775 47.126789 48.351299 Z M 27.44853 43.257095 C 27.351809 42.580017 27.115368 42.193115 26.610241 41.892189 C 26.244835 41.677246 24.471535 41.505287 24.32107 41.677246 C 24.267338 41.720234 24.235094 42.79496 24.235094 44.063141 L 24.235094 46.363056 L 25.288324 46.320068 C 26.158857 46.298573 26.384554 46.244835 26.663984 46.051384 C 27.287321 45.599998 27.609739 44.460789 27.44853 43.257095 Z"/>
</svg>
